static/img/crab-arm.svg

<svg fill="none" height="44" viewBox="0 0 47 44" width="47" xmlns="http://www.w3.org/2000/svg" xmlns:xlink="http://www.w3.org/1999/xlink"><clipPath id="a"><path d="m39.7153 0h32.5686v50.9769h-32.5686z" transform="matrix(.22109405 .97525249 -.97525249 .22109405 30.934483 -38.732445)"/></clipPath><g clip-path="url(#a)" fill="#ee5059"><path d="m34.0683 29.239c6.5699-4.2076 9.5824-11.8802 7.9078-19.26683l-28.9577 18.99093c6.1521 4.43 14.5638 4.8529 21.0499.2759z"/><path d="m15.6944 9.32872c-4.9376 6.16748-5.4391 14.43578-1.6721 20.57138l21.759-26.29013c-6.8634-2.32717-15.0655-.07939-20.0869 5.71875z"/><path d="m15.7333 29.371-1.3981-1.8012-17.8358 13.4262 1.39814 1.8012z"/></g></svg>

<svg width="47" height="44" viewBox="0 0 47 44" fill="none" xmlns="http://www.w3.org/2000/svg">
<g clip-path="url(#clip0)">
<path d="M34.0683 29.239C40.6382 25.0314 43.6507 17.3588 41.9761 9.97217L13.0184 28.9631C19.1705 33.3931 27.5822 33.816 34.0683 29.239Z" fill="#EE5059"/>
<path d="M15.6944 9.32872C10.7568 15.4962 10.2553 23.7645 14.0223 29.9001L35.7813 3.60997C28.9179 1.2828 20.7158 3.53058 15.6944 9.32872Z" fill="#EE5059"/>
<path d="M15.7333 29.371L14.3352 27.5698L-3.5006 40.996L-2.10246 42.7972L15.7333 29.371Z" fill="#EE5059"/>
</g>
<defs>
<clipPath id="clip0">
<rect x="39.7153" width="32.5686" height="50.9769" transform="rotate(77.2267 39.7153 0)" fill="white"/>
</clipPath>
</defs>
</svg>
